svgs/mi_remote.svg

<svg width="192" height="192" viewBox="0 0 192 192" fill="none" xmlns="http://www.w3.org/2000/svg">
<path d="M170 96C170 115.626 162.203 134.448 148.326 148.326C134.448 162.203 115.626 170 96 170C76.374 170 57.5519 162.203 43.6743 148.326C29.7966 134.448 22.0002 115.626 22.0002 96C22.0002 76.374 29.7966 57.5519 43.6743 43.6743C57.5519 29.7966 76.374 22.0002 96 22.0002C115.626 22.0002 134.448 29.7966 148.326 43.6743C162.203 57.5519 170 76.374 170 96V96Z" stroke="black" stroke-width="12"/>
<path d="M122 96C122 102.896 119.261 109.509 114.385 114.385C109.509 119.261 102.896 122 96 122C92.5856 122 89.2047 121.327 86.0502 120.021C82.8958 118.714 80.0295 116.799 77.6152 114.385C75.2009 111.97 73.2858 109.104 71.9791 105.95C70.6725 102.795 70 99.4144 70 96C70 92.5856 70.6725 89.2047 71.9791 86.0502C73.2857 82.8958 75.2009 80.0295 77.6152 77.6152C80.0295 75.2009 82.8958 73.2857 86.0502 71.9791C89.2047 70.6725 92.5856 70 96 70C99.4144 70 102.795 70.6725 105.95 71.9791C109.104 73.2858 111.97 75.2009 114.385 77.6152C116.799 80.0295 118.714 82.8958 120.021 86.0502C121.327 89.2047 122 92.5856 122 96Z" stroke="black" stroke-width="12"/>
<path d="M104 46C104 48.1217 103.157 50.1566 101.657 51.6568C100.157 53.1571 98.1217 54 96 54C94.9494 54 93.9091 53.7931 92.9385 53.391C91.9679 52.989 91.086 52.3997 90.3431 51.6568C89.6003 50.914 89.011 50.0321 88.609 49.0615C88.2069 48.0909 88 47.0506 88 46C88 44.9494 88.2069 43.9091 88.609 42.9385C89.011 41.9679 89.6003 41.086 90.3431 40.3431C91.086 39.6003 91.9679 39.011 92.9385 38.609C93.9091 38.2069 94.9494 38 96 38C98.1217 38 100.157 38.8429 101.657 40.3431C103.157 41.8434 104 43.8783 104 46Z" fill="black"/>
<path d="M146 104C143.878 104 141.843 103.157 140.343 101.657C138.843 100.157 138 98.1217 138 96C138 94.9494 138.207 93.9091 138.609 92.9385C139.011 91.9679 139.6 91.086 140.343 90.3431C141.086 89.6003 141.968 89.011 142.939 88.609C143.909 88.2069 144.949 88 146 88C147.051 88 148.091 88.2069 149.061 88.609C150.032 89.011 150.914 89.6003 151.657 90.3431C152.4 91.086 152.989 91.9679 153.391 92.9385C153.793 93.9091 154 94.9494 154 96C154 98.1217 153.157 100.157 151.657 101.657C150.157 103.157 148.122 104 146 104Z" fill="black"/>
<path d="M104 146C104 148.122 103.157 150.157 101.657 151.657C100.157 153.157 98.1217 154 96 154C94.9494 154 93.9091 153.793 92.9385 153.391C91.9679 152.989 91.086 152.4 90.3431 151.657C89.6003 150.914 89.011 150.032 88.609 149.061C88.2069 148.091 88 147.051 88 146C88 144.949 88.2069 143.909 88.609 142.939C89.011 141.968 89.6003 141.086 90.3431 140.343C91.086 139.6 91.9679 139.011 92.9385 138.609C93.9091 138.207 94.9494 138 96 138C98.1217 138 100.157 138.843 101.657 140.343C103.157 141.843 104 143.878 104 146Z" fill="black"/>
<path d="M46 104C43.8783 104 41.8434 103.157 40.3432 101.657C38.8429 100.157 38 98.1217 38 96C38 94.9494 38.2069 93.9091 38.609 92.9385C39.011 91.9679 39.6003 91.086 40.3432 90.3431C41.086 89.6003 41.9679 89.011 42.9385 88.609C43.9091 88.2069 44.9494 88 46 88C47.0506 88 48.0909 88.2069 49.0615 88.609C50.0321 89.011 50.914 89.6003 51.6569 90.3431C52.3997 91.086 52.989 91.9679 53.391 92.9385C53.7931 93.9091 54 94.9494 54 96C54 98.1217 53.1571 100.157 51.6569 101.657C50.1566 103.157 48.1217 104 46 104Z" fill="black"/>
</svg>

<svg xmlns="http://www.w3.org/2000/svg" width="192" height="192" fill="none" xmlns:v="https://vecta.io/nano"><g stroke="#000" stroke-width="12"><path d="M170 96c0 19.626-7.797 38.448-21.674 52.326S115.626 170 96 170s-38.448-7.797-52.326-21.674a74 74 0 0 1 0-104.652 74 74 0 0 1 104.652 0C162.203 57.552 170 76.374 170 96h0z"/><path d="M122 96a26 26 0 0 1-26 26 26.01 26.01 0 0 1-18.385-7.615c-2.414-2.415-4.329-5.281-5.636-8.435S70 99.414 70 96a26 26 0 0 1 7.615-18.385A26 26 0 0 1 96 70c3.414 0 6.795.672 9.95 1.979s6.02 3.222 8.435 5.636A26.01 26.01 0 0 1 122 96z"/></g><path d="M104 46a8 8 0 0 1-13.657 5.657 8 8 0 0 1 0-11.314A8 8 0 0 1 104 46zm42 58a8 8 0 0 1-7.391-11.061 7.98 7.98 0 0 1 1.734-2.595 8 8 0 0 1 2.596-1.734c.97-.402 2.01-.609 3.061-.609s2.091.207 3.061.609a8 8 0 0 1 2.596 1.734c.743.743 1.332 1.625 1.734 2.595A8 8 0 0 1 146 104zm-42 42a8 8 0 0 1-11.061 7.391 7.98 7.98 0 0 1-2.595-1.734 8 8 0 0 1-1.734-2.596c-.402-.97-.609-2.01-.609-3.061s.207-2.091.609-3.061a8 8 0 0 1 1.734-2.596c.743-.743 1.625-1.332 2.595-1.734A8 8 0 0 1 104 146zm-58-42a8 8 0 0 1-5.657-13.657 8 8 0 0 1 11.314 0A8 8 0 0 1 46 104z" fill="#000"/></svg>
